X:1
T:[ID 4-49v]
T:[ID 4-49v]
T:Bezeichnung standardisiert: Anglaise Angeloise
T:Urheber unbekannt Datum in der hier transkribierten schriftlichen Quelle: 1767
C:Urheber unbekannt
C:Datum in der hier transkribierten schriftlichen Quelle: 1767
L:1/8
M:2/4
K:D
V:1 treble 
V:1
 D2 D/D/D/D/ | F2 F/F/F/F/ | AFAF | D2 z A | dAdA | dA FD | A2 AA | A2 z2 :: afaf | gege | fdfd | %11
 [Ae]4 | afaf | gege | fdec | d4 :| x4 | !fermata!G/ G3 A | BGcA | d3 B | G2 G2 | d4 | cABG | %23
 AGAB | G4!D.C.! :| %25

